tools/download-figma-icons/icons/outlined-large/glass-of-water.svg

<svg width="64" height="64" viewBox="0 0 64 64" fill="none" xmlns="http://www.w3.org/2000/svg">
<path d="M54.6199 0.5C54.3399 0.18 53.9299 0 53.4999 0H10.4999C10.0699 0 9.66989 0.18 9.37989 0.5C9.09989 0.82 8.95989 1.25 8.99989 1.67L15.9999 62.67C16.0899 63.43 16.7299 64 17.4899 64H46.4899C47.2499 64 47.8899 63.43 47.9799 62.67L54.9899 1.67C55.0399 1.25 54.8999 0.82 54.6199 0.5ZM51.8199 3L50.1999 17.11C48.0799 16.02 45.5299 15 41.3299 15C36.2899 15 33.7499 16.36 31.2899 17.68C29.0599 18.87 26.9599 20 22.6599 20C18.3599 20 16.5299 18.97 14.3099 17.77C14.1599 17.69 13.9999 17.6 13.8399 17.52L12.1799 3H51.8199ZM45.1599 61H18.8399L14.2599 21.13C16.2599 22.14 18.6299 23 22.6599 23C27.6999 23 30.2399 21.64 32.6999 20.32C34.9299 19.13 37.0299 18 41.3199 18C45.6099 18 47.5999 19.11 49.8199 20.31L45.1499 61H45.1599Z" fill="black"/>
</svg>

<svg xmlns="http://www.w3.org/2000/svg" width="64" height="64" fill="none" viewBox="0 0 64 64"><path fill="currentColor" d="M54.62.5c-.28-.32-.69-.5-1.12-.5h-43c-.43 0-.83.18-1.12.5-.28.32-.42.75-.38 1.17l7 61c.09.76.73 1.33 1.49 1.33h29c.76 0 1.4-.57 1.49-1.33l7.01-61c.05-.42-.09-.85-.37-1.17M51.82 3 50.2 17.11C48.08 16.02 45.53 15 41.33 15c-5.04 0-7.58 1.36-10.04 2.68-2.23 1.19-4.33 2.32-8.63 2.32s-6.13-1.03-8.35-2.23c-.15-.08-.31-.17-.47-.25L12.18 3zm-6.66 58H18.84l-4.58-39.87c2 1.01 4.37 1.87 8.4 1.87 5.04 0 7.58-1.36 10.04-2.68 2.23-1.19 4.33-2.32 8.62-2.32s6.28 1.11 8.5 2.31L45.15 61z"/></svg>
